X:12020
T:no title (number 96)
S:Bartok & Kodaly, Transylvanian Hungarian Folksongs
N:used by Dohnanyi in his suite "Ruralia Hungarica"
M:4/4
L:1/4
K:GDor
% dorian/minor/phrygian pentatonic
g>gfg|fdcd|g>fdc|cdBB|g>fdc|dcBd|d>dcd|GGGG|]


